frontend/public/assets/chess/wR.svg

<svg xmlns="http://www.w3.org/2000/svg" viewBox="0 0 45 45"><g fill="#fff" fill-rule="evenodd" stroke="#000" stroke-linecap="round" stroke-linejoin="round" stroke-width="1.5"><path stroke-linecap="butt" d="M9 39h27v-3H9zm3-3v-4h21v4zm-1-22V9h4v2h5V9h5v2h5V9h4v5"/><path d="m34 14-3 3H14l-3-3"/><path stroke-linecap="butt" stroke-linejoin="miter" d="M31 17v12.5H14V17"/><path d="m31 29.5 1.5 2.5h-20l1.5-2.5"/><path fill="none" stroke-linejoin="miter" d="M11 14h23"/></g></svg>

<?xml version="1.0" encoding="UTF-8" standalone="no"?>
<!DOCTYPE svg PUBLIC "-//W3C//DTD SVG 1.1//EN" "http://www.w3.org/Graphics/SVG/1.1/DTD/svg11.dtd">
<svg xmlns="http://www.w3.org/2000/svg" version="1.1" width="45" height="45">
  <g style="opacity:1; fill:#ffffff; fill-opacity:1; fill-rule:evenodd; stroke:#000000; stroke-width:1.5; stroke-linecap:round;stroke-linejoin:round;stroke-miterlimit:4; stroke-dasharray:none; stroke-opacity:1;" transform="translate(0,0.3)">
    <path
      d="M 9,39 L 36,39 L 36,36 L 9,36 L 9,39 z "
      style="stroke-linecap:butt;" />
    <path
      d="M 12,36 L 12,32 L 33,32 L 33,36 L 12,36 z "
      style="stroke-linecap:butt;" />
    <path
      d="M 11,14 L 11,9 L 15,9 L 15,11 L 20,11 L 20,9 L 25,9 L 25,11 L 30,11 L 30,9 L 34,9 L 34,14"
      style="stroke-linecap:butt;" />
    <path
      d="M 34,14 L 31,17 L 14,17 L 11,14" />
    <path
      d="M 31,17 L 31,29.5 L 14,29.5 L 14,17"
      style="stroke-linecap:butt; stroke-linejoin:miter;" />
    <path
      d="M 31,29.5 L 32.5,32 L 12.5,32 L 14,29.5" />
    <path
      d="M 11,14 L 34,14"
      style="fill:none; stroke:#000000; stroke-linejoin:miter;" />
  </g>
</svg>
